assets/img/icons/duotone-icons/Devices/Radio.svg

<?xml version="1.0" encoding="UTF-8"?>
<svg width="24px" height="24px" viewBox="0 0 24 24" version="1.1" xmlns="http://www.w3.org/2000/svg" xmlns:xlink="http://www.w3.org/1999/xlink">
    <!-- Generator: Sketch 52.2 (67145) - http://www.bohemiancoding.com/sketch -->
    <title>Stockholm-icons / Devices / Radio</title>
    <desc>Created with Sketch.</desc>
    <g id="Stockholm-icons-/-Devices-/-Radio" stroke="none" stroke-width="1" fill="none" fill-rule="evenodd">
        <rect id="bound" x="0" y="0" width="24" height="24"></rect>
        <path d="M4,7 L20,7 C21.1045695,7 22,7.8954305 22,9 L22,19 C22,20.1045695 21.1045695,21 20,21 L4,21 C2.8954305,21 2,20.1045695 2,19 L2,9 C2,7.8954305 2.8954305,7 4,7 Z M16,18 C18.209139,18 20,16.209139 20,14 C20,11.790861 18.209139,10 16,10 C13.790861,10 12,11.790861 12,14 C12,16.209139 13.790861,18 16,18 Z" id="Combined-Shape" fill="#335EEA" opacity="0.3"></path>
        <path d="M20.6185961,7.09750181 C20.4238038,7.03420884 20.2158968,7 20,7 L17.2014013,7 L8.01276516,1.87327098 C7.53047091,1.60417861 7.35763664,0.995059403 7.62672902,0.512765158 C7.89582139,0.0304709116 8.5049406,-0.142363355 8.98723484,0.126729018 L20.1117466,6.33356496 C20.4052818,6.49734071 20.5841864,6.78706979 20.6185961,7.09750181 Z" id="Combined-Shape" fill="#335EEA"></path>
        <path d="M16,16 C17.1045695,16 18,15.1045695 18,14 C18,12.8954305 17.1045695,12 16,12 C14.8954305,12 14,12.8954305 14,14 C14,15.1045695 14.8954305,16 16,16 Z" id="Oval" fill="#335EEA"></path>
        <rect id="Rectangle-51" fill="#335EEA" opacity="0.3" x="4" y="11" width="5" height="2" rx="1"></rect>
        <rect id="Rectangle-51-Copy-2" fill="#335EEA" opacity="0.3" x="4" y="15" width="5" height="2" rx="1"></rect>
    </g>
</svg>

<svg width="24" height="24" viewBox="0 0 24 24" xmlns="http://www.w3.org/2000/svg"><g fill="none" fill-rule="evenodd"><path d="M0 0h24v24H0z"/><path d="M4 7h16a2 2 0 012 2v10a2 2 0 01-2 2H4a2 2 0 01-2-2V9a2 2 0 012-2zm12 11a4 4 0 100-8 4 4 0 000 8z" fill="#335EEA" opacity=".3"/><path d="M20.619 7.098A1.998 1.998 0 0020 7h-2.799L8.013 1.873A1 1 0 118.987.127l11.125 6.207a.999.999 0 01.507.764zM16 16a2 2 0 100-4 2 2 0 000 4z" fill="#335EEA"/><rect fill="#335EEA" opacity=".3" x="4" y="11" width="5" height="2" rx="1"/><rect fill="#335EEA" opacity=".3" x="4" y="15" width="5" height="2" rx="1"/></g></svg>
